X:1
T:The Judgment Has Set
T:Franklin Edson Belden, 1886
T:The Judgment Has Set
T:Public Domain
T:Public Domain
C:Franklin Edson Belden, 1886
Z:Public Domain
%%score ( 1 2 ) ( 3 4 )
L:1/8
M:3/4
K:Db
V:1 treble 
V:2 treble 
V:3 bass 
V:4 bass 
V:1
 [FA]2 | [FA]2 [=E=G]2 [FA]2 | [Fd]4 [DF]2 | [DF]2 [D=E]2 [DF]2 | [DG]4 [DF]2 | %5
w: 1.~The|judg- ment has|set, the|books have been|o- pened;|
w: 2.~The|work is be-|gun with|those who are|sleep- ing,|
w: 3.~O,|how shall we|stand that|mo- ment of|search- ing,|
 [DF]2 [CE]2 [=B,=D]2 | [CE]4 [CB]2 | [DA]4 [EG]2 | [DF]6 | [FA]2 [=E=G]2 [FA]2 | [Fd]4 [DF]2 | %11
w: How shall we|stand in|that great|day,|When ev- ery|thought, and|
w: Soon will the|liv- ing|here be|tried,|Out of the|books of|
w: When all our|sins those|books re-|veal?|When from that|court, each|
 (F2 =E2) [DF]2 | [DG]4 [DF]2 | ([DF]2 [CE]2) ([=B,=D]2 | [CE]2) [DF]2 [EG]2 | [DF]4 [CE]2 | D6 || %17
w: word, * and|ion, God,|the * right-|* eous Judge,|shall weigh?||
w: God’s * re-|brance, His|de- * ci-|* sion to|a- bide.|How|
w: case * de-|ed, Shall|be * grant-|* ed no|ap- peal?||
"^Refrain" [Fd]2 [Gd]2 [Ad]2 | [Gd]4 [Gd]2 | (d2 c2) [GB]2 | [FA]6 | [Fd]2 [Gd]2 [Ad]2 | %22
w: |||||
w: we stand in|that great|day? * How|we|stand in that|
w: |||||
 [Gd]4 [Gd]2 | (d2 c2) [GB]2 | [FA]6 | [FA]2 [=E=G]2 [FA]2 | [Fd]4 [DF]2 | (F2 =E2) [DF]2 | %28
w: ||||||
w: great day?|Shall * we|found|be- fore Him|want- ing?|Or * with|
w: ||||||
 [DG]4 [DF]2 | [DF]2 [CE]2 [=B,=D]2 | ([CE]2 [DF]2) [EG]2 | [DF]4 [CE]2 | D4 |] %33
w: |||||
w: sins all|washed a- way?||||
w: |||||
V:2
 x2 | x6 | x6 | x6 | x6 | x6 | x6 | x6 | x6 | x6 | x6 | D4 x2 | x6 | x6 | x6 | x6 | D6 || x6 | x6 | %19
w: |||||||||||act-||||||||
w: |||||||||||mem-|||||shall|||
w: |||||||||||cid-||||||||
 G4 x2 | x6 | x6 | x6 | G4 x2 | x6 | x6 | x6 | D4 x2 | x6 | x6 | x6 | x6 | D4 |] %33
w: ||||||||||||||
w: shall||||be||||our||||||
w: ||||||||||||||
V:3
 [D,D]2 | [D,D]2 [D,D]2 [D,D]2 | [D,A,]4 [D,A,]2 | [D,A,]2 [D,=G,]2 [D,A,]2 | [D,B,]4 [D,A,]2 | %5
 [A,,A,]2 [A,,A,]2 [A,,A,]2 | [A,,A,]4 [A,,G,]2 | [A,,F,]4 [C,A,]2 | [D,A,]6 | %9
 [D,D]2 [D,D]2 [D,D]2 | [D,A,]4 [D,A,]2 | A,2 =G,2 [D,A,]2 | [D,B,]4 [D,A,]2 | [A,,A,]4 [A,,A,]2 | %14
 [A,,A,]4 [A,,A,]2 | [A,,A,]4 [A,,G,]2 | [D,F,]4- [D,F,]2 || [D,A,]2 [E,A,]2 [F,A,]2 | %18
 [G,B,]4 [G,B,]2 | (B,2 C2) [G,D]2 | [D,D]6 | [D,A,]2 [E,A,]2 [F,A,]2 | [G,B,]4 [G,B,]2 | %23
 (B,2 C2) [G,D]2 | [D,D]6 | [D,D]2 [D,D]2 [D,D]2 | [D,A,]4 [D,A,]2 | (A,2 =G,2) [D,A,]2 | %28
 [D,B,]4 [D,A,]2 | [A,,A,]2 [A,,A,]2 [A,,A,]2 | [A,,A,]4 [A,,A,]2 | [A,,A,]4 [A,,G,]2 | [D,F,]4 |] %33
V:4
 x2 | x6 | x6 | x6 | x6 | x6 | x6 | x6 | x6 | x6 | x6 | D,4 x2 | x6 | x6 | x6 | x6 | x6 || x6 | %18
 x6 | G,4 x2 | x6 | x6 | x6 | G,4 x2 | x6 | x6 | x6 | D,4 x2 | x6 | x6 | x6 | x6 | x4 |] %33

